X:1
T:Fulcite Me Floribus
T:Oliver Hayes
T:Fulcite Me Floribus
C:Oliver Hayes
%%score [ 1 2 3 4 ]
L:1/8
Q:1/4=176
M:4/2
K:Db
V:1 treble nm="Soprano"
V:2 treble nm="Alto"
V:3 treble-8 nm="Tenor"
V:4 bass nm="Bass"
V:1
"^Stay me up with flowers, compass me about with apples, for I languish with love. \nHail Mary, full of grace, the Lord is with you, blessed are you among women, amen.\nAnthem for Feast of Our Lady of Sorrows" z16 | %1
w: |
 z16 | z16 | z16 | z16 | z16 | z16 | z8 B8 | c4 d4 e8 | c8 d4 c4 | B8 f8 | e4 d4 c8 | d4 e2 f2 g8 | %13
w: ||||||Ful-|ci- te me|_ flo- ri-|bus, ful-|ci- te me|flo- ri- * bus,|
 d8 e4 d4 | e8 B4 c4 | d4 c2 B2 A4 c4 | B4 c4 d8 | c4 d4 e4 f4 | g8 z8 | d8 e4 f4 | g8 e8 | f8 f8 | %22
w: sti- pa- te|me ma- *|* * * lis, sti-|pa- te me|ma- * * *|lis,|sti- pa- te|me _|ma- lis,|
 e8 d4 e4 | f4 F4 G4 A4 | B12 B4 | c4 d4 e4 f4 | g16 | d8 d8- | d4 e4 f8 | f8 d8 | e8 d4 c4 | %31
w: qui- * *|a a- * *|mo- re|lan- * * *|gue-|o, qui-|* a a-|mo- re|lan- gue- *|
 B4 A4 G8 | (3B4 c4 d4 e8 | d4 c4 B8- | B4 A8 B4 | c4 d4 e8 | e8 z8 | B8 f8 | f4 e4 d8 | %39
w: * * o,|qui- * * *|a _ a-|* mo- re|lan- * gue-|o,|qui- *|a _ a-|
 d4 c4 B4 A4 | c8 d8 | B8 B8 | d4 c4 B4 A4 | G8 A8 | !fermata!B16 || B6 c2 d4 c4 | (3B4 c4 d4 e8 | %47
w: mo- * re _|lan- *|gue- o,|lan- * * *|gue- *|o.|A- * ve Ma-|ri- * * *|
 f8 e8 | d8 d2 c2 B2 A2 | G2 A2 B2 c2 d4 c4 | B8 c4 d4 | e8 G4 A4 | B4 c4 (3d4 e4 f4 | %53
w: * a,|gra- ti- * * *||a ple- *|na, Do- *||
 g6 f2 e2 d2 _c4 | (3e4 d4 =c4 B8 | c8 e8 | d4 B4 c4 d4 | e4 f4 g4 G4 | (3A4 B4 c4 (3d4 e4 f4 | %59
w: mi- * * * nus|te- * * *|cum, be-|ne- dic- * ta|tu _ _ in|mu- * * * * *|
 g8 d8- | d8 (3e4 d4 c4 | B8 B8 | f2 e2 d2 c2 B8 | (3A4 B4 c4 d8 | e8 f8 | !fermata!e16 |] %66
w: li- e-|* ri- * *|bus, a-|* * * * men,|a- * * *||men.|
V:2
 z16 | z16 | z16 | z16 | z16 | E8 F4 G4 | A8 F8 | G4 F4 E8 | E8 C4 D4 | E8 G8- | G8 F8 | A8 A4 G4 | %12
w: |||||Ful- ci- te|me _|flo- ri- bus,|ful- ci- te|me flo-|* ri-|bus, flo- *|
 F4 E4 D8 | F8 G4 A4 | B4 A4 G8 | A8 z8 | G8 A4 B4 | c8 A8 | B8 B8 | A8 G4 F4 | G8 A8- | A8 A8 | %22
w: * * bus,|sti- pa- te|me _ ma-|lis,|sti- pa- te|me _|ma- lis,|sti- pa- te|me ma-|* lis,|
 B4 A4 G8 | F8 D8 | D8 G4 F4 | F8 E8 | E2 F2 G2 A2 B4 A4 | G8 F8 | A8 A4 G4 | F8 F8 | A8 A8 | %31
w: qui- * *|a a-|mo- re _|lan- *|gue- * * * * *|o, qui-|a a- *|mo- re|lan- gue-|
 D8 z8 | E8 B8 | B4 A4 G8 | G4 F4 E4 D4 | F8 G8 | E8 E8 | E8 D8 | A8 A8 | A8 F8 | E8 F4 E4 | %41
w: o,|qui- *|a _ a-|mo- * re _|lan- *|gue- o,|qui- *|a a-|mo- re|lan- * *|
 D8 G8 | A8 G8- | G8 F8 | !fermata!G16 || G8 F8 | E8 G8 | F4 G4 A8 | B4 A4 G4 F4 | E8 D8- | D8 E8 | %51
w: gue- o,|lan- gue-||o.|A- ve|Ma- ri-|* * a,|gra- * * *|ti- a|_ ple-|
 E8 z8 | B8 A8 | G8 A8 | E16 | E8 E4 F4 | G8 A8 | B16 | A16 | B8 G8 | A8 B8 | G4 F4 E8 | D8 D8 | %63
w: na,|Do- mi-|nus te-|cum,|be- ne- *|dic- ta|tu|in|mu- li-|e- *|ri- * *|bus, a-|
 F8 A8 | G12 A4 | !fermata!B16 |] %66
w: * men,|a- *|men.|
V:3
 z16 | z16 | z8 B8 | c4 d4 e8 | c8 d4 c4 | B8 d8 | c4 B4 A4 c4 | B4 A4 G8 | A8 A4 B4 | %9
w: ||Ful-|ci- te me|_ flo- ri-|bus, ful-|ci- te me flo-|* ri- bus,|ful- ci- te|
 c4 A4 B4 c4 | d8 c4 d4 | e16 | d8 z8 | d8 e4 f4 | g8 e8 | f8 f8 | e8 f8 | e8 e8 | d16- | %19
w: me flo- * *|* ri- *||bus,|sti- pa- te|me _|ma- lis,|sti- pa-|te me|ma-|
 d4 c4 B8 | (3d4 c4 B4 A8 | (3A4 B4 c4 (3d4 e4 f4 | g8 g2 f2 e4 | d4 c4 B8 | B12 B4 | A8 B8 | %26
w: * lis, sti-|pa- * * te|me _ _ ma- * *|lis, qui- * *|a _ a-|mo- re|lan- gue-|
 B8 z8 | B8 f8 | f4 e4 d8 | d4 c4 B4 A4 | c8 d8 | B8 B8 | G8 G8 | B4 e4 d8- | d8 e4 g4 | f8 B8 | %36
w: o,|qui- *|a _ a-|mo- * re _|lan- *|gue- o,|qui- a|a- * mo-|* * re|lan- gue-|
 c4 d4 e4 f4 | g8 f4 e4 | d8 d8 | f4 e4 d8 | c8 A8 | B12 c4 | d8 d4 c4 | B4 c4 d8 | !fermata!B16 || %45
w: |o, qui- *|a a-|mo- * re|lan- *|gue- *|o, lan- *|* * gue-|o.|
 B8 A8 | G8 B4 c4 | d8 e8 | f8 z8 | B8 A8 | G8 A8 | B16 | B8 f8 | B8 A8 | G8 g4 f4 | e4 d4 c8 | %56
w: A- ve|Ma- ri- *||a,|gra- ti-|a ple-|na,|Do- mi-|nus te-|cum, be- *|* * ne-|
 d8 e8 | e8 d8- | d8 f8 | (3e4 d4 c4 B4 c4 | (3d4 e4 f4 g8 | e4 f4 g8 | a8 (3g4 f4 e4 | d8 A8 | %64
w: dic- ta|tu in|_ mu-|li- * * e- *|* * * ri-|* * bus,|a- * * *|men, a-|
 B16 | !fermata!G16 |] %66
w: |men.|
V:4
 E,8 F,4 G,4 | A,8 F,8 | G,4 F,4 E,8 | A,4 B,4 G,4 B,4 | A,4 G,4 F,8 | G,2 F,2 E,4 D,4 B,,4 | %6
w: Ful- ci- te|me _|flo- ri- bus,|ful- * ci- te|me _ flo-|ri- * * * *|
 C,8 D,8- | D,8 E,4 D,4 | C,4 B,,4 A,,8- | A,,8 z8 | G,8 A,4 B,4 | C8 A,8 | B,8 B,8 | %13
w: bus, flo-|* ri- *|* * bus,|_|sti- pa- te|me _|ma- lis,|
 B,4 A,4 G,4 F,4 | E,4 F,4 G,8 | D,16 | E,8 D,8 | A,8 C8 | B,4 A,4 G,8 | F,8 E,4 D,2 C,2 | %20
w: sti- * pa- te|me _ ma-|lis,|sti- pa-|te me|ma- * *|lis, sti- * *|
 B,,8 C,8 | D,8 z8 | E,8 B,8 | B,4 A,4 G,8 | G,4 F,4 E,4 D,4 | F,8 G,8 | E,8 E,8 | G,4 A,4 B,4 C4 | %28
w: pa- te|_|qui- *|a _ a-|mo- * re _|lan- *|gue- o,|qui- * * *|
 D8 D,8 | B,,4 C,4 D,8 | (3C,4 D,4 E,4 F,8 | G,8 E,8- | E,8 E,4 F,4 | G,4 A,4 B,4 C4 | D8 C4 B,4 | %35
w: a a-|mo- * re|lan- * * *|gue- o,|_ qui- *||a a- *|
 A,8 G,8 | A,8 G,8 | E,8 B,,8 | D,4 E,4 F,4 G,4 | A,8 F,8 | A,4 G,4 F,8 | G,4 F,4 E,8 | D,8 G,8 | %43
w: mo- re|lan- gue-|o, qui-|a _ a- *|mo- re|lan- * *|gue- * *|o, lan-|
 E,8 F,8 | !fermata!E,16 || G,8 D,8 | E,8 E,8 | B,8 _C8 | B,16 | E,8 F,8 | G,4 B,4 A,8 | %51
w: gue- *|o.|A- ve|Ma- ri-||a,|gra- ti-|a ple- *|
 G,4 F,4 E,8 | G,8 D,8 | E,4 B,4 _C8 | B,8 z8 | A,8 A,8 | B,8 A,8 | G,16 | F,8 D,8 | E,8 G,8 | %60
w: * * na,|Do- mi-|nus te- *|cum,|be- ne-|dic- ta|tu|in _|mu- li-|
 F,8"^A.M.D.G.\n\nBarcelona\nSunday 3rd April 2016\n\nDivine Mercy Sunday and eve of \ntransferred Feast of the Annunciation" E,8 | %61
w: * e-|
 E,8 E,8 | D,16 | F,16 | E,16- | !fermata!E,16 |] %66
w: ri- bus,|a-||men.|_|

